X: 01024
T: CLOVER RIDGE
C: Bob McQuillen May'74
B: Bob's Note Book 1 #24
%R: reel
Z: 2019 John Chambers <jc:trillian.mit.edu>
M: C
L: 1/8
K: A
E2 \
| A2Bc dcBc | A2e2 e2ce | f2a2 e2c2 | B2e2 d2cB |\
| A2Bc dcBc | A2e2 e2ce | f2a2 e2c2 | B4 A2 :|
|: AB \
| c2A2 c2d2 | e2ef e2ee | f2a2 e2d2 | cdef e2AB |\
| c2A2 c2d2 | e3f  e2ee | f2a2 e2c2 | B4 A2 :|

%%sep 1 1 500

%%sep 1 1 500

